icons/editor/superscript.svg

<svg width="32" height="32" viewBox="0 0 32 32" fill="none" xmlns="http://www.w3.org/2000/svg">
<path fill-rule="evenodd" clip-rule="evenodd" d="M19 8H12V26H10V8H3V6H19V8ZM23 8H27V10H24.5C23.6716 10 23 10.6716 23 11.5V15V16H24H29V14H25V12H27.5C28.3284 12 29 11.3284 29 10.5V7.5C29 6.67157 28.3284 6 27.5 6H23V8Z" fill="black"/>
</svg>

<svg viewBox="0 0 32 32" xmlns="http://www.w3.org/2000/svg"><path fill-rule="evenodd" d="M19 8h-7v18h-2V8H3V6h16v2zm4 0h4v2h-2.5a1.5 1.5 0 00-1.5 1.5V16h6v-2h-4v-2h2.5a1.5 1.5 0 001.5-1.5v-3A1.5 1.5 0 0027.5 6H23v2z"/></svg>
